svgs/solid/calendar-circle-user.svg

<svg xmlns="http://www.w3.org/2000/svg" viewBox="0 0 576 512"><!--! Font Awesome Pro 6.6.0 by @fontawesome - https://fontawesome.com License - https://fontawesome.com/license (Commercial License) Copyright 2024 Fonticons, Inc. --><path d="M128 0C110.3 0 96 14.3 96 32l0 32L48 64C21.5 64 0 85.5 0 112l0 48 448 0 0-48c0-26.5-21.5-48-48-48l-48 0 0-32c0-17.7-14.3-32-32-32s-32 14.3-32 32l0 32L160 64l0-32c0-17.7-14.3-32-32-32zM256 368c0-91.8 70.3-167.2 160-175.3l0-.7L0 192 0 464c0 26.5 21.5 48 48 48l282.8 0C285.6 480.1 256 427.5 256 368zm320 0a144 144 0 1 0 -288 0 144 144 0 1 0 288 0zm-66.3 80.7C489.5 468.1 462.2 480 432 480s-57.5-11.9-77.7-31.3c6.2-19 24-32.7 45.1-32.7l65.2 0c21 0 38.9 13.7 45.1 32.7zM384 336a48 48 0 1 1 96 0 48 48 0 1 1 -96 0z"/></svg>

<svg xmlns="http://www.w3.org/2000/svg" viewBox="0 0 576 512"><!--! Font Awesome Pro 6.4.2 by @fontawesome - https://fontawesome.com License - https://fontawesome.com/license (Commercial License) Copyright 2023 Fonticons, Inc. --><path d="M128 0C110.3 0 96 14.3 96 32V64H48C21.5 64 0 85.5 0 112v48H448V112c0-26.5-21.5-48-48-48H352V32c0-17.7-14.3-32-32-32s-32 14.3-32 32V64H160V32c0-17.7-14.3-32-32-32zM256 368c0-91.8 70.3-167.2 160-175.3V192H0V464c0 26.5 21.5 48 48 48H330.8C285.6 480.1 256 427.5 256 368zm320 0a144 144 0 1 0 -288 0 144 144 0 1 0 288 0zm-66.3 80.7C489.5 468.1 462.2 480 432 480s-57.5-11.9-77.7-31.3c6.2-19 24-32.7 45.1-32.7h65.2c21 0 38.9 13.7 45.1 32.7zM384 336a48 48 0 1 1 96 0 48 48 0 1 1 -96 0z"/></svg>
